src/assets/images/toolbox/eslint.svg

<svg
  width="36"
  height="32"
  viewBox="0 0 36 32"
  fill="transparent"
  xmlns="http://www.w3.org/2000/svg">
  <path
    fill="#8080F2"
    d="M10.9639 11.4648L17.794 7.47442C17.878 7.42532 17.9733 7.39947 18.0704 7.39947C18.1674 7.39947 18.2627 7.42532 18.3467 7.47442L25.1768 11.4648C25.2608 11.5139 25.3306 11.5845 25.3791 11.6695C25.4276 11.7545 25.4531 11.8509 25.4532 11.949V19.9297C25.4532 20.1294 25.3477 20.3139 25.1768 20.414L18.3467 24.4043C18.2627 24.4534 18.1674 24.4793 18.0704 24.4793C17.9733 24.4793 17.878 24.4534 17.794 24.4043L10.9639 20.414C10.8799 20.3649 10.8101 20.2943 10.7616 20.2093C10.7131 20.1243 10.6876 20.0279 10.6875 19.9297V11.9489C10.6877 11.7491 10.793 11.5648 10.9639 11.4648Z"
  />
  <path
    fill="#4B32C3"
    d="M35.7773 15.2854L27.6079 0.903601C27.3111 0.383639 26.763 0 26.1695 0H9.83046C9.23702 0 8.68859 0.383639 8.39187 0.903601L0.222539 15.2536C-0.0741797 15.7737 -0.0741797 16.4302 0.222539 16.9503L8.39187 31.2142C8.68859 31.7342 9.23702 32 9.83046 32H26.1694C26.7628 32 27.3111 31.7422 27.6077 31.222L35.7772 16.9349C36.0742 16.4151 36.0743 15.8053 35.7773 15.2854ZM29.0126 22.2011C29.0126 22.4124 28.8868 22.6081 28.7057 22.714L18.2996 28.7892C18.21 28.8411 18.1085 28.8684 18.0053 28.8684C17.902 28.8684 17.8005 28.8411 17.7109 28.7892L7.29682 22.714C7.11584 22.6081 6.98913 22.4126 6.98913 22.201V10.0503C6.98913 9.83872 7.11401 9.64334 7.29513 9.53747L17.7007 3.46214C17.7902 3.41011 17.8917 3.38273 17.9949 3.38273C18.0982 3.38273 18.1997 3.41011 18.2892 3.46214L28.7039 9.53747C28.8851 9.64334 29.0126 9.83872 29.0126 10.0503V22.2011Z"
  />
</svg>

<svg xmlns="http://www.w3.org/2000/svg" width="36" height="32" fill="transparent" xmlns:v="https://vecta.io/nano">
  <path fill="#8080f2"
    d="M10.964 11.465l6.83-3.99c.084-.049.179-.075.276-.075s.192.026.276.075l6.83 3.99c.084.049.154.12.202.205s.074.181.074.28v7.981a.56.56 0 0 1-.276.484l-6.83 3.99c-.084.049-.179.075-.276.075a.55.55 0 0 1-.276-.075l-6.83-3.99c-.084-.049-.154-.12-.202-.205s-.074-.181-.074-.28v-7.981a.56.56 0 0 1 .276-.484z" />
  <path fill="#4b32c3"
    d="M35.777 15.285L27.608.904C27.311.384 26.763 0 26.17 0H9.83c-.593 0-1.142.384-1.439.904L.223 15.254a1.73 1.73 0 0 0 0 1.697l8.169 14.264c.297.52.845.786 1.439.786h16.339c.593 0 1.142-.258 1.438-.778l8.169-14.287a1.64 1.64 0 0 0 0-1.649zm-6.765 6.916c0 .211-.126.407-.307.513L18.3 28.789c-.09.052-.191.079-.294.079s-.205-.027-.294-.079L7.297 22.714c-.181-.106-.308-.301-.308-.513V10.05c0-.212.125-.407.306-.513l10.406-6.075c.089-.052.191-.079.294-.079s.205.027.294.079l10.415 6.075a.61.61 0 0 1 .309.513v12.151z" />
</svg>
